X: 42063
T: Waltz Of The Little Girls, The
R: waltz
M: 3/4
K: Fdorian
|:edcB|G2GFEF|G2edcB|G2GFEF/G/|
A2AGAB|c2cBAG|1 F2FGAB|cBcdef|dB:|2 F2FGAB||
|:c2d3c/d/|e2E3e|:d3cBc|BGcGBG|FB,DFAB|
GB,DFAe|d3cBc|BGcGBG|FB,DFAF|1 E3GBe:|2 E2||

